icon/ir/sea-and-sun.svg

<svg stroke-width="1.5" viewBox="0 0 24 24" fill="none" xmlns="http://www.w3.org/2000/svg" height="1em" width="1em">
  <path d="M3 15C5.48276 15 7.34483 12 7.34483 12C7.34483 12 9.2069 15 11.6897 15C14.1724 15 16.6552 12 16.6552 12C16.6552 12 19.1379 15 21 15" stroke="currentColor" stroke-linecap="round" stroke-linejoin="round"/>
  <path d="M3 20C5.48276 20 7.34483 17 7.34483 17C7.34483 17 9.2069 20 11.6897 20C14.1724 20 16.6552 17 16.6552 17C16.6552 17 19.1379 20 21 20" stroke="currentColor" stroke-linecap="round" stroke-linejoin="round"/>
  <path d="M19 10C19 6.13401 15.866 3 12 3C8.13401 3 5 6.13401 5 10" stroke="currentColor" stroke-linecap="round" stroke-linejoin="round"/>
</svg>

<svg width="24" height="24" stroke-width="1.5" fill="none" xmlns="http://www.w3.org/2000/svg"><path d="M3 15c2.483 0 4.345-3 4.345-3s1.862 3 4.345 3c2.482 0 4.965-3 4.965-3s2.483 3 4.345 3M3 20c2.483 0 4.345-3 4.345-3s1.862 3 4.345 3c2.482 0 4.965-3 4.965-3s2.483 3 4.345 3M19 10a7 7 0 1 0-14 0" stroke="currentColor" stroke-linecap="round" stroke-linejoin="round"/></svg>
